fs/call_12_filled.svg

<svg viewBox="0 0 12 12" fill="none" xmlns="http://www.w3.org/2000/svg" height="1em" width="1em">
  <path d="M5.96638 4.48996L5.13907 5.23219C5.15514 5.28777 5.17511 5.35293 5.19934 5.42538C5.28125 5.67035 5.40932 5.99122 5.59441 6.30479C5.7795 6.61835 5.99959 6.88726 6.17553 7.07913C6.22757 7.13588 6.27528 7.18538 6.31646 7.22678L7.3873 6.89712C7.98717 6.71246 8.64159 6.90246 9.04128 7.37734L9.6517 8.10257C10.1648 8.71215 10.1045 9.60692 9.51402 10.1453C8.51923 11.0525 6.98699 11.3604 5.8398 10.4588C5.04161 9.83152 4.1053 8.90168 3.32412 7.58823C2.53976 6.26943 2.18359 5.00699 2.02959 4.01406C1.80909 2.59226 2.85108 1.45407 4.14881 1.06588C4.92349 0.834155 5.74881 1.23186 6.03302 1.97385L6.36818 2.84887C6.5888 3.42486 6.42982 4.07419 5.96638 4.48996Z" fill="#212121"/>
</svg>

<svg viewBox="0 0 12 12" fill="none" xmlns="http://www.w3.org/2000/svg" height="1em" width="1em">
  <path d="m5.966 4.49-.827.742a4.914 4.914 0 0 0 .455 1.073 4.736 4.736 0 0 0 .722.922l1.071-.33c.6-.185 1.255.005 1.654.48l.61.726a1.47 1.47 0 0 1-.137 2.042c-.995.908-2.527 1.215-3.674.314a10.429 10.429 0 0 1-2.516-2.87A9.986 9.986 0 0 1 2.03 4.013c-.22-1.422.821-2.56 2.119-2.948.774-.232 1.6.166 1.884.908l.335.875c.22.576.062 1.225-.402 1.641Z" fill="#212121"/>
</svg>
